LUTS/HDR_CONVERSION_LUT.cube
LUT_3D_SIZE 6
0.020492 0.020492 0.020492
0.219570 0.020488 0.020488
0.366363 0.020478 0.020478
0.492092 0.020458 0.020458
0.656149 0.020425 0.020425
1.012470 0.020309 0.020309
0.020481 0.216850 0.020481
0.219583 0.216409 0.020477
0.366362 0.180872 0.020469
0.492092 0.162092 0.020452
0.656149 0.162136 0.020417
1.012470 0.199899 0.020296
0.020445 0.361677 0.020445
0.183780 0.361677 0.020441
0.366361 0.361059 0.020430
0.492091 0.323430 0.020419
0.656148 0.323511 0.020383
1.012469 0.399260 0.020243
0.020386 0.485751 0.020386
0.164695 0.485751 0.020384
0.328666 0.485751 0.020375
0.492090 0.484998 0.020355
0.656148 0.485130 0.020314
1.012469 0.598784 0.020134
0.020272 0.646749 0.020272
0.164505 0.646749 0.020270
0.328247 0.646749 0.020260
0.492239 0.646749 0.020238
0.656147 0.646702 0.020205
1.012468 0.798242 0.019957
0.019891 0.998553 0.019891
0.202925 0.998553 0.019888
0.405353 0.998553 0.019871
0.607925 0.998552 0.019837
0.810465 0.998552 0.019781
1.012467 0.997871 0.019702
0.020491 0.020491 0.214169
0.219584 0.020488 0.213316
0.366363 0.020477 0.178267
0.492092 0.020459 0.159775
0.656149 0.020425 0.159823
1.012470 0.020309 0.197041
0.020479 0.216849 0.213736
0.220148 0.216747 0.213406
0.385538 0.202880 0.199494
0.518173 0.183724 0.180173
0.684426 0.163163 0.159261
1.012470 0.216558 0.214154
0.020444 0.361677 0.178560
0.182892 0.367072 0.174964
0.368143 0.362334 0.167907
0.505382 0.331613 0.161143
0.674507 0.328234 0.148639
1.012469 0.405280 0.214150
0.020385 0.485751 0.160009
0.158080 0.490684 0.149570
0.328780 0.489203 0.147224
0.493541 0.486023 0.143260
0.664348 0.488652 0.137042
1.012469 0.601530 0.214142
0.020272 0.646749 0.159826
0.141972 0.650896 0.132773
0.323100 0.650220 0.131982
0.491698 0.649043 0.130549
0.657326 0.647535 0.128677
1.012468 0.799376 0.214164
0.019890 0.998553 0.197140
0.170349 1.000019 0.163235
0.393824 1.000019 0.155873
0.601304 1.000019 0.133022
0.808309 0.999831 0.121517
1.012467 0.997889 0.214156
0.020488 0.020488 0.357065
0.184104 0.020484 0.357065
0.366362 0.020473 0.355869
0.492092 0.020456 0.318761
0.656149 0.020420 0.318854
1.012470 0.020302 0.393506
0.020479 0.181455 0.357065
0.215829 0.212609 0.378371
0.383765 0.198816 0.372295
0.517079 0.181167 0.337238
0.684011 0.160983 0.329210
1.012470 0.216852 0.399841
0.020440 0.361677 0.356445
0.179359 0.365785 0.359932
0.367299 0.361450 0.355733
0.512019 0.351892 0.346215
0.697052 0.332474 0.326322
1.012469 0.361726 0.357060
0.020383 0.485751 0.319259
0.154370 0.490472 0.318260
0.336142 0.492537 0.323565
0.494951 0.486807 0.314362
0.679362 0.491091 0.295723
1.012469 0.582684 0.357057
0.020269 0.646749 0.318871
0.136950 0.650923 0.311375
0.293090 0.657217 0.278654
0.483911 0.653648 0.273295
0.659620 0.649088 0.265779
1.012468 0.792064 0.357053
0.019884 0.998553 0.393765
0.169693 1.000019 0.383515
0.348615 1.000019 0.338274
0.582974 1.000019 0.333033
0.799951 1.000019 0.318221
1.012467 0.997897 0.357047
0.020482 0.020482 0.479517
0.164964 0.020480 0.479516
0.329178 0.020470 0.479516
0.492092 0.020449 0.478001
0.656149 0.020414 0.478133
1.012470 0.020292 0.590152
0.020474 0.162595 0.479516
0.208648 0.205496 0.514052
0.356316 0.193770 0.510124
0.514079 0.176562 0.498823
0.681652 0.158493 0.495133
1.012470 0.216851 0.593059
0.020441 0.324446 0.479516
0.178580 0.339520 0.499467
0.364175 0.358633 0.500771
0.510440 0.349226 0.495028
0.695701 0.329334 0.501227
1.012469 0.361672 0.574542
0.020377 0.485751 0.478752
0.152801 0.489448 0.481932
0.333736 0.490897 0.482950
0.493445 0.485511 0.477677
0.684457 0.474706 0.466400
1.012469 0.486486 0.479512
0.020262 0.646749 0.478170
0.136406 0.650456 0.477422
0.288892 0.656519 0.468936
0.457513 0.656336 0.439621
0.660390 0.649272 0.428391
1.012468 0.758488 0.479509
0.019874 0.998553 0.590540
0.165301 1.000019 0.585999
0.347246 1.000019 0.567397
0.483097 1.000019 0.468340
0.765642 1.000019 0.460951
1.012467 0.997873 0.479504
0.020472 0.020472 0.637550
0.164534 0.020469 0.637550
0.328315 0.020458 0.637550
0.492347 0.020436 0.637550
0.656149 0.020404 0.637409
1.012470 0.020275 0.786774
0.020462 0.162174 0.637550
0.195314 0.191980 0.689507
0.354651 0.182261 0.682241
0.517776 0.168410 0.670243
0.678373 0.154996 0.658508
1.012470 0.216850 0.787988
0.020430 0.323596 0.637550
0.170495 0.338927 0.669903
0.358547 0.352840 0.683067
0.524001 0.341733 0.678923
0.692995 0.323942 0.671970
1.012469 0.361672 0.780782
0.020362 0.485253 0.637549
0.148804 0.493432 0.650890
0.324021 0.501390 0.667758
0.490279 0.482099 0.667185
0.682186 0.470941 0.660771
1.012469 0.485748 0.747341
0.020250 0.646749 0.637432
0.135587 0.649797 0.640100
0.286077 0.654672 0.644211
0.453515 0.654024 0.643064
0.658184 0.646528 0.634878
1.012469 0.647595 0.637547
0.019857 0.998552 0.787280
0.156730 1.000019 0.785823
0.344681 1.000019 0.778727
0.479937 1.000019 0.744155
0.650622 1.000019 0.629571
1.012467 0.997785 0.637543
0.020435 0.020435 0.983069
0.202722 0.020430 0.983069
0.404919 0.020415 0.983069
0.607272 0.020381 0.983068
0.809560 0.020326 0.983068
1.012469 0.020250 0.983504
0.020422 0.199816 0.983069
0.209663 0.206970 0.997154
0.410954 0.203700 0.997103
0.614921 0.196248 0.997002
0.820006 0.181545 0.996990
1.012469 0.216848 0.983544
0.020368 0.399062 0.983068
0.198709 0.402405 0.996990
0.362619 0.357540 0.997013
0.594362 0.354504 0.997072
0.811923 0.348901 0.996969
1.012469 0.361671 0.983609
0.020261 0.598526 0.983067
0.163420 0.601241 0.996847
0.351454 0.582525 0.996863
0.490712 0.483226 0.996913
0.776136 0.479392 0.996822
1.012469 0.485747 0.983501
0.020085 0.797929 0.983065
0.128200 0.800494 0.990359
0.319012 0.795000 0.996320
0.473808 0.760436 0.996398
0.655760 0.644937 0.996548
1.012468 0.646747 0.983021
0.019831 0.998552 0.984169
0.139176 1.000019 0.985425
0.340062 1.000019 0.985460
0.476765 1.000019 0.985290
0.645594 1.000019 0.984801
1.012467 0.997785 0.983061
