LUTS/HDR_CONVERSION_LUT.cube
LUT_3D_SIZE 16
0.020492 0.020492 0.020492
0.099269 0.020492 0.020492
0.163653 0.020490 0.020490
0.219570 0.020488 0.020488
0.272086 0.020485 0.020485
0.321027 0.020482 0.020482
0.366363 0.020478 0.020478
0.408804 0.020472 0.020472
0.450037 0.020467 0.020467
0.492092 0.020458 0.020458
0.537353 0.020451 0.020451
0.589852 0.020440 0.020440
0.656149 0.020425 0.020425
0.746130 0.020401 0.020401
0.869985 0.020363 0.020363
1.012470 0.020309 0.020309
0.020491 0.098120 0.020491
0.099269 0.097877 0.020490
0.163653 0.081665 0.020489
0.219570 0.073484 0.020489
0.272086 0.068587 0.020484
0.321027 0.064973 0.020481
0.366363 0.062003 0.020477
0.408804 0.059506 0.020472
0.450037 0.057493 0.020467
0.492092 0.056015 0.020459
0.537353 0.055141 0.020450
0.589852 0.055032 0.020439
0.656149 0.056021 0.020425
0.746130 0.058552 0.020401
0.869985 0.063029 0.020362
1.012470 0.068104 0.020309
0.020488 0.161745 0.020488
0.083032 0.161745 0.020488
0.163653 0.161308 0.020485
0.219584 0.144632 0.020484
0.272086 0.134586 0.020482
0.321027 0.127154 0.020478
0.366363 0.121020 0.020474
0.408804 0.115840 0.020470
0.450037 0.111661 0.020463
0.492092 0.108579 0.020457
0.537353 0.106758 0.020448
0.589852 0.106535 0.020437
0.656149 0.108606 0.020421
0.746130 0.113890 0.020398
0.869985 0.123176 0.020358
1.012470 0.133649 0.020304
0.020481 0.216850 0.020481
0.074653 0.216849 0.020480
0.147021 0.216849 0.020479
0.219583 0.216409 0.020477
0.272086 0.201303 0.020475
0.321026 0.190116 0.020472
0.366362 0.180872 0.020469
0.408803 0.173064 0.020463
0.450037 0.166741 0.020459
0.492092 0.162092 0.020452
0.537353 0.159335 0.020443
0.589852 0.159007 0.020432
0.656149 0.162136 0.020417
0.746130 0.170105 0.020393
0.869985 0.184117 0.020353
1.012470 0.199899 0.020296
0.020471 0.268604 0.020471
0.069638 0.268604 0.020472
0.136751 0.268604 0.020471
0.204565 0.268604 0.020468
0.272085 0.268171 0.020464
0.321026 0.253229 0.020462
0.366362 0.240886 0.020459
0.408803 0.230452 0.020456
0.450037 0.222032 0.020451
0.492092 0.215815 0.020445
0.537353 0.212138 0.020436
0.589852 0.211673 0.020425
0.656149 0.215868 0.020409
0.746130 0.226539 0.020383
0.869985 0.245244 0.020343
1.012470 0.266305 0.020285
0.020459 0.316906 0.020459
0.065959 0.316906 0.020459
0.129188 0.316906 0.020458
0.193182 0.316906 0.020456
0.257331 0.316905 0.020453
0.321026 0.316418 0.020448
0.366362 0.300949 0.020448
0.408803 0.287928 0.020445
0.450037 0.277362 0.020440
0.492092 0.269605 0.020435
0.537353 0.265005 0.020426
0.589852 0.264435 0.020415
0.656148 0.269683 0.020398
0.746130 0.282999 0.020371
0.869985 0.306425 0.020325
1.012470 0.332785 0.020268
0.020445 0.361677 0.020445
0.062938 0.361677 0.020445
0.122970 0.361677 0.020444
0.183780 0.361677 0.020441
0.244803 0.361677 0.020439
0.305866 0.361677 0.020436
0.366361 0.361059 0.020430
0.408802 0.345433 0.020429
0.450037 0.332723 0.020425
0.492091 0.323430 0.020419
0.537352 0.317906 0.020414
0.589852 0.317216 0.020401
0.656148 0.323511 0.020383
0.746130 0.339525 0.020355
0.869985 0.367606 0.020308
1.012469 0.399260 0.020243
0.020429 0.403624 0.020429
0.060400 0.403624 0.020429
0.117718 0.403624 0.020428
0.175875 0.403624 0.020426
0.234236 0.403624 0.020424
0.292660 0.403624 0.020419
0.351079 0.403624 0.020415
0.408802 0.402942 0.020409
0.450036 0.388119 0.020407
0.492091 0.377269 0.020402
0.537352 0.370845 0.020396
0.589852 0.369981 0.020383
0.656148 0.377385 0.020364
0.746129 0.396029 0.020334
0.869984 0.428816 0.020282
1.012469 0.465745 0.020214
0.020410 0.444323 0.020410
0.058341 0.444323 0.020409
0.113453 0.444323 0.020409
0.169449 0.444323 0.020408
0.225645 0.444323 0.020405
0.281892 0.444323 0.020403
0.338188 0.444323 0.020397
0.394459 0.444322 0.020390
0.450036 0.443562 0.020384
0.492091 0.431126 0.020379
0.537352 0.423748 0.020373
0.589851 0.422850 0.020361
0.656148 0.431253 0.020342
0.746129 0.452585 0.020308
0.869984 0.490065 0.020251
1.012469 0.532271 0.020177
0.020386 0.485751 0.020386
0.056825 0.485751 0.020386
0.110297 0.485751 0.020385
0.164695 0.485751 0.020384
0.219304 0.485751 0.020383
0.273949 0.485751 0.020378
0.328666 0.485751 0.020375
0.383354 0.485751 0.020368
0.438089 0.485751 0.020362
0.492090 0.484998 0.020355
0.537351 0.476691 0.020348
0.589851 0.475664 0.020336
0.656148 0.485130 0.020314
0.746128 0.509135 0.020278
0.869984 0.551313 0.020216
1.012469 0.598784 0.020134
0.020359 0.530283 0.020359
0.055916 0.530283 0.020359
0.108416 0.530283 0.020358
0.161846 0.530283 0.020357
0.215488 0.530283 0.020355
0.269212 0.530283 0.020352
0.322959 0.530283 0.020347
0.376696 0.530283 0.020342
0.430502 0.530283 0.020336
0.484290 0.530282 0.020326
0.537351 0.529630 0.020318
0.589851 0.528481 0.020305
0.656147 0.538975 0.020282
0.746125 0.565685 0.020241
0.869983 0.612501 0.020174
1.012469 0.665241 0.020083
0.020322 0.581791 0.020322
0.055773 0.581791 0.020322
0.108129 0.581791 0.020321
0.161419 0.581792 0.020320
0.214925 0.581792 0.020319
0.268486 0.581791 0.020314
0.322101 0.581791 0.020311
0.375685 0.581791 0.020305
0.429358 0.581791 0.020299
0.483003 0.581791 0.020291
0.536588 0.581791 0.020281
0.589851 0.581353 0.020271
0.656147 0.592901 0.020245
0.746125 0.622293 0.020201
0.869983 0.673820 0.020125
1.012468 0.731780 0.020024
0.020272 0.646749 0.020272
0.056739 0.646749 0.020272
0.110163 0.646749 0.020271
0.164505 0.646749 0.020270
0.219032 0.646749 0.020268
0.273637 0.646749 0.020264
0.328247 0.646749 0.020260
0.382899 0.646749 0.020252
0.437588 0.646749 0.020246
0.492239 0.646749 0.020238
0.546898 0.646749 0.020228
0.601623 0.646749 0.020217
0.656147 0.646702 0.020205
0.746124 0.678705 0.020154
0.869982 0.734951 0.020068
1.012468 0.798242 0.019957
0.020194 0.734941 0.020194
0.059265 0.734941 0.020194
0.115443 0.734941 0.020192
0.172477 0.734941 0.020191
0.229707 0.734941 0.020188
0.286987 0.734941 0.020185
0.344261 0.734941 0.020179
0.401576 0.734941 0.020173
0.458939 0.734941 0.020165
0.516284 0.734940 0.020156
0.573607 0.734940 0.020145
0.631004 0.734940 0.020132
0.688267 0.734940 0.020117
0.746123 0.735410 0.020102
0.869982 0.796302 0.020005
1.012468 0.864882 0.019881
0.020068 0.856561 0.020068
0.063770 0.856561 0.020068
0.124800 0.856561 0.020067
0.186603 0.856561 0.020064
0.248554 0.856561 0.020062
0.310567 0.856561 0.020056
0.372602 0.856561 0.020052
0.434616 0.856561 0.020043
0.496702 0.856561 0.020033
0.558798 0.856561 0.020022
0.620832 0.856560 0.020009
0.682935 0.856560 0.019993
0.744927 0.856560 0.019976
0.807085 0.856560 0.019957
0.869981 0.857426 0.019934
1.012468 0.931312 0.019796
0.019891 0.998553 0.019891
0.069011 0.998553 0.019891
0.135642 0.998553 0.019891
0.202925 0.998553 0.019888
0.270362 0.998553 0.019884
0.337854 0.998553 0.019879
0.405353 0.998553 0.019871
0.472843 0.998553 0.019861
0.540371 0.998552 0.019849
0.607925 0.998552 0.019837
0.675434 0.998552 0.019820
0.743018 0.998552 0.019801
0.810465 0.998552 0.019781
0.878092 0.998552 0.019757
0.945525 0.998551 0.019731
1.012467 0.997871 0.019702
0.020492 0.020492 0.096969
0.099269 0.020492 0.096499
0.163653 0.020490 0.080530
0.219570 0.020488 0.072474
0.272086 0.020485 0.067649
0.321027 0.020482 0.064097
0.366363 0.020477 0.061172
0.408804 0.020472 0.058714
0.450037 0.020467 0.056734
0.492092 0.020458 0.055281
0.537353 0.020451 0.054419
0.589852 0.020440 0.054311
0.656149 0.020425 0.055284
0.746130 0.020401 0.057777
0.869985 0.020363 0.062181
1.012470 0.020309 0.067178
0.020491 0.098120 0.096724
0.099521 0.098071 0.096641
0.171714 0.091032 0.089730
0.230269 0.081534 0.080200
0.282423 0.074042 0.072650
0.330100 0.068776 0.067338
0.374099 0.065124 0.063660
0.415564 0.062554 0.061079
0.455992 0.060705 0.059227
0.497403 0.059351 0.057877
0.542180 0.058354 0.056886
0.594211 0.057663 0.056199
0.660106 0.057289 0.055828
0.749626 0.057354 0.055893
0.872904 0.058107 0.056648
1.012470 0.097651 0.096937
0.020488 0.161746 0.080740
0.081243 0.163904 0.078129
0.164354 0.161807 0.074911
0.224791 0.147448 0.071519
0.278850 0.137590 0.067869
0.327892 0.129777 0.064674
0.372766 0.123327 0.062129
0.414676 0.118000 0.060174
0.455401 0.113760 0.058687
0.496994 0.110633 0.057553
0.541864 0.108672 0.056706
0.593950 0.108129 0.056110
0.659963 0.109595 0.055806
0.749452 0.113851 0.055927
0.872815 0.121700 0.056731
1.012470 0.147677 0.096934
0.020480 0.216850 0.072616
0.069740 0.218769 0.066488
0.146443 0.218186 0.065504
0.220132 0.216819 0.063839
0.275110 0.202906 0.062678
0.325154 0.192060 0.061312
0.370813 0.182804 0.059986
0.413269 0.174971 0.058812
0.454418 0.168611 0.057833
0.496262 0.163906 0.057027
0.541319 0.161020 0.056408
0.593519 0.160442 0.055973
0.659629 0.163197 0.055792
0.749250 0.170521 0.056010
0.872680 0.183659 0.056894
1.012470 0.208130 0.096931
0.020471 0.268604 0.067753
0.064124 0.270135 0.060785
0.135534 0.269893 0.060435
0.204583 0.269448 0.059805
0.272518 0.268486 0.058982
0.322895 0.254352 0.058556
0.368982 0.242316 0.058015
0.411869 0.232059 0.057456
0.453303 0.223675 0.056929
0.495400 0.217467 0.056461
0.540579 0.213704 0.056086
0.592987 0.213073 0.055844
0.659168 0.217003 0.055812
0.748953 0.227210 0.056170
0.872365 0.245292 0.057180
1.012470 0.271785 0.096926
0.020459 0.316906 0.064185
0.061267 0.318104 0.057910
0.127955 0.317988 0.057778
0.192980 0.317806 0.057528
0.257540 0.317472 0.057188
0.321349 0.316645 0.056800
0.367573 0.301782 0.056647
0.410619 0.289079 0.056444
0.452278 0.278718 0.056223
0.494520 0.271029 0.056012
0.539915 0.266433 0.055854
0.592406 0.265750 0.055792
0.658708 0.270806 0.055926
0.748492 0.283816 0.056436
0.872071 0.306752 0.057598
1.012470 0.336684 0.096930
0.020445 0.361677 0.061259
0.059800 0.362628 0.056490
0.122100 0.362603 0.056442
0.183642 0.362456 0.056348
0.244961 0.362340 0.056219
0.306150 0.362096 0.056072
0.366594 0.361217 0.055937
0.409684 0.346048 0.055896
0.451395 0.333705 0.055845
0.493766 0.324547 0.055803
0.539215 0.319091 0.055796
0.591823 0.318409 0.055887
0.658220 0.324624 0.056174
0.748125 0.340383 0.056843
0.871755 0.368109 0.058173
1.012469 0.402153 0.096933
0.020429 0.403624 0.058801
0.059117 0.404415 0.055891
0.117418 0.404372 0.055877
0.175909 0.404323 0.055853
0.234462 0.404228 0.055828
0.292918 0.404086 0.055803
0.351371 0.403948 0.055792
0.409039 0.403055 0.055806
0.450736 0.388705 0.055826
0.493109 0.378053 0.055866
0.538641 0.371730 0.055960
0.591309 0.371019 0.056169
0.657754 0.378368 0.056589
0.747580 0.396843 0.057417
0.871437 0.429366 0.058926
1.012469 0.467963 0.096917
0.020410 0.444323 0.056808
0.058933 0.445011 0.055805
0.113822 0.444983 0.055811
0.169817 0.444939 0.055823
0.226024 0.444888 0.055843
0.282273 0.444809 0.055877
0.338524 0.444687 0.055931
0.394749 0.444553 0.056017
0.450236 0.443710 0.056145
0.492621 0.431585 0.056219
0.538184 0.424460 0.056372
0.590888 0.423644 0.056659
0.657345 0.432066 0.057190
0.747366 0.453364 0.058160
0.871154 0.490619 0.059854
1.012469 0.533951 0.096914
0.020386 0.485751 0.055336
0.059111 0.486337 0.056096
0.111319 0.486351 0.056108
0.165391 0.486308 0.056136
0.219849 0.486264 0.056183
0.274445 0.486198 0.056244
0.329064 0.486126 0.056340
0.383706 0.486040 0.056463
0.438384 0.485967 0.056628
0.492245 0.485133 0.056826
0.537821 0.477107 0.056996
0.590515 0.476241 0.057344
0.657027 0.485797 0.057972
0.747077 0.509851 0.059087
0.870907 0.551889 0.060966
1.012469 0.600109 0.096908
0.020359 0.530283 0.054463
0.059618 0.530799 0.056716
0.109997 0.530781 0.056733
0.162840 0.530801 0.056770
0.216228 0.530746 0.056825
0.269787 0.530715 0.056909
0.323452 0.530675 0.057022
0.377126 0.530591 0.057171
0.430827 0.530523 0.057355
0.484501 0.530461 0.057583
0.537525 0.529739 0.057845
0.590227 0.528833 0.058224
0.656678 0.539421 0.058936
0.746816 0.566234 0.060178
0.870630 0.612958 0.062240
1.012469 0.666283 0.096899
0.020322 0.581791 0.054322
0.060500 0.582243 0.057714
0.110137 0.582236 0.057735
0.162639 0.582223 0.057778
0.215795 0.582213 0.057844
0.269171 0.582184 0.057941
0.322645 0.582156 0.058063
0.376187 0.582093 0.058231
0.429734 0.582043 0.058432
0.483305 0.582003 0.058672
0.536821 0.581936 0.058957
0.589998 0.581468 0.059282
0.656492 0.593212 0.060059
0.746571 0.622654 0.061430
0.870455 0.674138 0.063680
1.012468 0.732613 0.096885
0.020272 0.646749 0.055255
0.061918 0.647189 0.059255
0.112347 0.647183 0.059272
0.165801 0.647138 0.059320
0.219954 0.647120 0.059392
0.274342 0.647095 0.059501
0.328847 0.647063 0.059643
0.383349 0.647061 0.059818
0.437987 0.647016 0.060040
0.492602 0.646997 0.060290
0.547141 0.646906 0.060594
0.601773 0.646874 0.060940
0.656307 0.646806 0.061326
0.746445 0.679026 0.062821
0.870311 0.735216 0.065258
1.012468 0.798820 0.096872
0.020194 0.734941 0.057698
0.064177 0.735232 0.061640
0.117498 0.735221 0.061664
0.173683 0.735201 0.061718
0.230551 0.735256 0.061797
0.287617 0.735211 0.061913
0.344820 0.735195 0.062067
0.402086 0.735252 0.062262
0.459327 0.735167 0.062495
0.516648 0.735209 0.062772
0.573901 0.735106 0.063097
0.631222 0.735082 0.063469
0.688464 0.735138 0.063887
0.746301 0.735478 0.064352
0.870126 0.796474 0.066974
1.012468 0.865246 0.096854
0.020068 0.856561 0.062060
0.067678 0.856750 0.065283
0.126406 0.856746 0.065306
0.187528 0.856738 0.065365
0.249221 0.856725 0.065457
0.311074 0.856707 0.065586
0.373037 0.856762 0.065751
0.434992 0.856712 0.065963
0.497065 0.856756 0.066224
0.559073 0.856720 0.066532
0.621123 0.856679 0.066881
0.683181 0.856691 0.067288
0.745149 0.856645 0.067739
0.807240 0.856679 0.068235
0.870041 0.857476 0.068792
1.012468 0.931394 0.096856
0.019891 0.998553 0.067142
0.072134 0.998707 0.069892
0.136909 0.998703 0.069927
0.203678 0.998697 0.069973
0.270881 0.998686 0.070076
0.338244 0.998670 0.070204
0.405674 0.998651 0.070390
0.473135 0.998627 0.070615
0.540607 0.998599 0.070892
0.608141 0.998566 0.071221
0.675571 0.998531 0.071590
0.743151 0.998605 0.072028
0.810663 0.998631 0.072507
0.878281 0.998590 0.073036
0.945642 0.998548 0.073626
1.012467 0.997876 0.096838
0.020492 0.020492 0.159859
0.083249 0.020491 0.159859
0.163653 0.020490 0.159007
0.219570 0.020489 0.142566
0.272086 0.020485 0.132669
0.321027 0.020482 0.125351
0.366363 0.020477 0.119307
0.408804 0.020472 0.114196
0.450037 0.020467 0.110072
0.492092 0.020458 0.107047
0.537353 0.020451 0.105249
0.589852 0.020440 0.105022
0.656149 0.020425 0.107074
0.746130 0.020401 0.112279
0.869985 0.020362 0.121424
1.012470 0.020309 0.131746
0.020491 0.082092 0.159859
0.097266 0.096041 0.168903
0.170919 0.089223 0.166000
0.229772 0.080570 0.150028
0.282251 0.073433 0.138181
0.330104 0.068250 0.129162
0.374176 0.064578 0.122063
0.415709 0.061965 0.116392
0.456132 0.060069 0.111966
0.497548 0.058670 0.108719
0.542269 0.057635 0.106689
0.594345 0.056896 0.106082
0.660215 0.056472 0.107470
0.749653 0.056484 0.111636
0.872943 0.057174 0.119384
1.012470 0.098083 0.146197
0.020487 0.161745 0.159423
0.080022 0.163373 0.160865
0.164047 0.161665 0.159310
0.228404 0.157397 0.155081
0.286691 0.151225 0.148847
0.338796 0.144007 0.141571
0.385029 0.137050 0.134565
0.427534 0.130773 0.128251
0.468275 0.125218 0.122653
0.509646 0.120215 0.117597
0.554206 0.115610 0.112945
0.606042 0.111228 0.108485
0.671529 0.106958 0.104108
0.760340 0.102800 0.099792
0.882407 0.099073 0.095883
1.012470 0.161389 0.159845
0.020480 0.216849 0.142847
0.068558 0.218657 0.142018
0.150271 0.219847 0.145146
0.220804 0.217314 0.141214
0.280753 0.207929 0.137276
0.333653 0.198931 0.132692
0.380808 0.190354 0.127948
0.424086 0.182591 0.123371
0.465591 0.175847 0.119051
0.507504 0.170272 0.114918
0.552493 0.165991 0.110948
0.604571 0.163288 0.107012
0.670342 0.162872 0.103047
0.759308 0.165798 0.099070
0.881754 0.173352 0.095429
1.012470 0.216791 0.159844
0.020472 0.268604 0.132875
0.062639 0.270150 0.130888
0.136010 0.272610 0.130473
0.205342 0.271279 0.128302
0.273419 0.269127 0.125191
0.327556 0.257498 0.122984
0.375777 0.246699 0.120333
0.419916 0.237016 0.117471
0.462169 0.228766 0.114486
0.504700 0.222245 0.111420
0.550201 0.217766 0.108276
0.602692 0.215892 0.105000
0.668758 0.217824 0.101555
0.757997 0.225186 0.098033
0.880679 0.239690 0.094785
1.012470 0.277718 0.159843
0.020459 0.316906 0.125537
0.059551 0.318180 0.123252
0.125379 0.320809 0.119561
0.192474 0.320064 0.118353
0.257983 0.318998 0.116590
0.322225 0.317262 0.114357
0.371101 0.303999 0.113133
0.415893 0.292247 0.111558
0.458707 0.282356 0.109698
0.501718 0.274735 0.107595
0.547647 0.269844 0.105255
0.600471 0.268459 0.102659
0.666895 0.272231 0.099816
0.756551 0.283293 0.096821
0.879444 0.303652 0.094034
1.012469 0.340945 0.159841
0.020445 0.361677 0.119490
0.057961 0.362678 0.117406
0.117720 0.365208 0.111709
0.182080 0.364725 0.111014
0.244726 0.364086 0.109976
0.306559 0.363267 0.108611
0.367359 0.361765 0.107016
0.412469 0.347799 0.106294
0.455558 0.336159 0.105257
0.498905 0.327359 0.103898
0.545134 0.321940 0.102242
0.598275 0.320886 0.100268
0.664918 0.326235 0.097986
0.754896 0.340655 0.095536
0.878081 0.366486 0.093244
1.012469 0.405346 0.159840
0.020429 0.403624 0.114399
0.057229 0.404439 0.112788
0.112135 0.406735 0.106001
0.173740 0.406456 0.105590
0.233680 0.406067 0.104953
0.292949 0.405508 0.104107
0.351775 0.404876 0.103086
0.409688 0.403534 0.101945
0.452931 0.390073 0.101430
0.496482 0.380025 0.100609
0.542863 0.373956 0.099483
0.596214 0.373174 0.098032
0.663128 0.380033 0.096280
0.753232 0.397597 0.094320
0.876784 0.428688 0.092527
1.012469 0.470405 0.159837
0.020409 0.444323 0.110259
0.057035 0.445068 0.109259
0.107951 0.447133 0.101751
0.167161 0.446942 0.101487
0.224853 0.446667 0.101094
0.281948 0.446321 0.100557
0.338731 0.445893 0.099899
0.395212 0.445382 0.099147
0.450820 0.444109 0.098311
0.494461 0.432754 0.097856
0.540905 0.426012 0.097117
0.594378 0.425387 0.096075
0.661442 0.433609 0.094751
0.751710 0.454264 0.093259
0.875446 0.490481 0.091948
1.012469 0.535875 0.159835
0.020386 0.485751 0.107194
0.057229 0.486398 0.106814
0.104726 0.488248 0.098461
0.162226 0.488138 0.098300
0.218248 0.487957 0.098054
0.273756 0.487682 0.097711
0.328950 0.487410 0.097288
0.383936 0.487029 0.096788
0.438780 0.486615 0.096243
0.492793 0.485481 0.095658
0.539263 0.478025 0.095180
0.592787 0.477516 0.094460
0.659941 0.487101 0.093497
0.750328 0.510700 0.092409
0.874347 0.552010 0.091526
1.012469 0.601572 0.159832
0.020359 0.530283 0.105363
0.057764 0.530865 0.105547
0.102174 0.532564 0.095886
0.158932 0.532465 0.095783
0.214088 0.532327 0.095625
0.268669 0.532201 0.095412
0.322977 0.531973 0.095137
0.377091 0.531669 0.094822
0.431030 0.531335 0.094469
0.484914 0.531037 0.094083
0.537979 0.530070 0.093688
0.591500 0.529619 0.093210
0.658636 0.540422 0.092520
0.749183 0.567024 0.091791
0.873254 0.613321 0.091306
1.012469 0.667418 0.159829
0.020322 0.581791 0.105096
0.058680 0.582295 0.105729
0.100158 0.583840 0.093831
0.157510 0.583781 0.093763
0.212808 0.583700 0.093681
0.267408 0.583558 0.093546
0.321675 0.583405 0.093381
0.375715 0.583208 0.093200
0.429656 0.582967 0.092983
0.483485 0.582723 0.092757
0.537134 0.582440 0.092518
0.590422 0.581768 0.092285
0.657624 0.593830 0.091847
0.748248 0.623333 0.091425
0.872352 0.674543 0.091304
1.012468 0.733342 0.159838
0.020272 0.646749 0.107066
0.060133 0.647180 0.107951
0.098666 0.648626 0.092275
0.158700 0.648611 0.092252
0.215649 0.648574 0.092190
0.271605 0.648426 0.092136
0.327114 0.648312 0.092047
0.382379 0.648202 0.091965
0.437474 0.648011 0.091859
0.492377 0.647739 0.091740
0.547197 0.647520 0.091639
0.602070 0.647332 0.091526
0.656654 0.647070 0.091449
0.747371 0.679434 0.091289
0.871568 0.735644 0.091506
1.012468 0.799392 0.159833
0.020194 0.734941 0.112196
0.062426 0.735320 0.113065
0.097849 0.736630 0.091387
0.163582 0.736564 0.091379
0.224298 0.736460 0.091363
0.283477 0.736405 0.091350
0.342046 0.736414 0.091328
0.400190 0.736274 0.091303
0.458113 0.736174 0.091294
0.515894 0.735963 0.091290
0.573606 0.735827 0.091289
0.631221 0.735722 0.091293
0.688613 0.735394 0.091316
0.746538 0.735760 0.091368
0.870883 0.796811 0.091894
1.012468 0.865563 0.159827
0.020068 0.856561 0.121271
0.065963 0.856790 0.121862
0.098064 0.857972 0.091514
0.173347 0.857987 0.091525
0.240356 0.857924 0.091534
0.305059 0.857836 0.091571
0.368736 0.857778 0.091597
0.431978 0.857675 0.091647
0.494857 0.857511 0.091702
0.557659 0.857484 0.091781
0.620125 0.857394 0.091875
0.682654 0.857253 0.091989
0.744876 0.857069 0.092109
0.807295 0.856958 0.092293
0.870361 0.857724 0.092484
1.012468 0.931638 0.159821
0.019891 0.998553 0.131799
0.070471 0.998751 0.132220
0.099454 0.999717 0.092897
0.185393 0.999681 0.092922
0.259423 0.999623 0.092962
0.330354 0.999542 0.093010
0.399995 0.999549 0.093083
0.468935 0.999415 0.093187
0.537587 0.999440 0.093297
0.605895 0.999375 0.093429
0.674064 0.999358 0.093597
0.742103 0.999201 0.093784
0.809950 0.998961 0.094008
0.877887 0.998923 0.094258
0.945508 0.998775 0.094541
1.012467 0.997883 0.159806
0.020491 0.020491 0.214169
0.074795 0.020491 0.214168
0.147303 0.020489 0.214168
0.219584 0.020488 0.213316
0.272086 0.020484 0.198409
0.321027 0.020481 0.187371
0.366363 0.020477 0.178267
0.408804 0.020471 0.170569
0.450037 0.020466 0.164352
0.492092 0.020459 0.159775
0.537353 0.020450 0.157062
0.589852 0.020439 0.156730
0.656149 0.020425 0.159823
0.746130 0.020400 0.167687
0.869985 0.020361 0.181472
1.012470 0.020309 0.197041
0.020490 0.073765 0.214168
0.093506 0.092330 0.229265
0.158580 0.086532 0.227114
0.228468 0.078437 0.221790
0.281406 0.072306 0.205224
0.329593 0.067641 0.192373
0.373857 0.064236 0.181937
0.415490 0.061766 0.173446
0.455998 0.059956 0.166705
0.497436 0.058602 0.161756
0.542196 0.057594 0.158712
0.594291 0.056875 0.158036
0.660174 0.056466 0.160623
0.749617 0.056488 0.167807
0.872976 0.057190 0.180725
1.012470 0.098083 0.205525
0.020487 0.145201 0.214168
0.079284 0.151068 0.222254
0.162677 0.160404 0.223639
0.227707 0.156231 0.221103
0.286237 0.150216 0.211595
0.338496 0.143218 0.201488
0.384977 0.136395 0.191628
0.427589 0.130187 0.182754
0.468476 0.124614 0.175109
0.509905 0.119543 0.168849
0.554542 0.114822 0.163999
0.606390 0.110304 0.160833
0.671927 0.105818 0.159965
0.760585 0.101378 0.162445
0.882729 0.097330 0.169580
1.012470 0.161731 0.214401
0.020479 0.216849 0.213736
0.067887 0.218270 0.214999
0.149221 0.219134 0.215707
0.220148 0.216747 0.213406
0.281054 0.213212 0.209838
0.335814 0.208590 0.205231
0.385538 0.202880 0.199494
0.431232 0.196591 0.193140
0.474668 0.190153 0.186666
0.518173 0.183724 0.180173
0.564503 0.177178 0.173568
0.617786 0.170430 0.166697
0.684426 0.163163 0.159261
0.773697 0.155251 0.151113
0.895523 0.147088 0.142613
1.012470 0.216558 0.214154
0.020471 0.268604 0.198711
0.062395 0.269983 0.198714
0.134799 0.272340 0.199386
0.208722 0.271642 0.201531
0.273570 0.269140 0.197724
0.330470 0.261222 0.193936
0.380912 0.253003 0.189545
0.426898 0.245027 0.184796
0.470668 0.237654 0.179780
0.514497 0.231094 0.174545
0.561127 0.225525 0.168978
0.614704 0.221269 0.162974
0.681647 0.219039 0.156296
0.771198 0.220021 0.148805
0.893457 0.225959 0.140899
1.012470 0.277532 0.214153
0.020458 0.316906 0.187659
0.059451 0.318085 0.187060
0.123764 0.320791 0.185791
0.194971 0.321733 0.187340
0.259167 0.320077 0.184627
0.322858 0.317622 0.181093
0.374642 0.306897 0.178484
0.421443 0.296866 0.175429
0.465731 0.288061 0.171931
0.510049 0.280841 0.167981
0.557118 0.275548 0.163531
0.610962 0.272819 0.158484
0.678211 0.273960 0.152647
0.768283 0.280833 0.145927
0.890887 0.295572 0.138750
1.012470 0.340818 0.214152
0.020444 0.361677 0.178560
0.057922 0.362621 0.177819
0.115662 0.365244 0.174888
0.182892 0.367072 0.174964
0.245502 0.365957 0.173168
0.307366 0.364522 0.170768
0.368143 0.362334 0.167907
0.415719 0.350127 0.166174
0.460605 0.339730 0.163941
0.505382 0.331613 0.161143
0.552774 0.326217 0.157741
0.607006 0.324525 0.153615
0.674507 0.328234 0.148639
0.764966 0.339821 0.142753
0.888103 0.361649 0.136358
1.012469 0.405280 0.214150
0.020428 0.403624 0.170885
0.057215 0.404431 0.170256
0.109691 0.406891 0.166232
0.173019 0.409046 0.164854
0.233716 0.408301 0.163650
0.293413 0.407301 0.162053
0.352470 0.406037 0.160041
0.410504 0.404074 0.157747
